TEfficiency/docu4.svg

<svg xmlns="http://www.w3.org/2000/svg" viewBox="0 0 1200 800" preserveAspectRatio="none" width="1200" height="800">
 <path d="M0,0H1200V800H0Z" style="fill: white;"></path>
 <g>
  <g transform="translate(120,80)">
   <path d="M0,0H960V640H0Z" style="fill: white; stroke: black; stroke-width: 1;"></path>
   <svg x="0" y="0" overflow="hidden" width="960" height="640" viewBox="0 0 960 640">
    <g>
     <g transform="translate(22,561)">
      <path style="stroke: black; stroke-width: 1; fill: none;" d="M0,0H-22m0,3v-6M0,0H22m0,3v-6M0,0V23m3,0h-6M0,0V-23m3,0h-6"></path>
     </g>
     <g transform="translate(65,454)">
      <path style="stroke: black; stroke-width: 1; fill: none;" d="M0,0H-22m0,3v-6M0,0H22m0,3v-6M0,0V24m3,0h-6M0,0V-24m3,0h-6"></path>
     </g>
     <g transform="translate(109,354)">
      <path style="stroke: black; stroke-width: 1; fill: none;" d="M0,0H-22m0,3v-6M0,0H22m0,3v-6M0,0V22m3,0h-6M0,0V-21m3,0h-6"></path>
     </g>
     <g transform="translate(153,317)">
      <path style="stroke: black; stroke-width: 1; fill: none;" d="M0,0H-22m0,3v-6M0,0H22m0,3v-6M0,0V21m3,0h-6M0,0V-20m3,0h-6"></path>
     </g>
     <g transform="translate(196,250)">
      <path style="stroke: black; stroke-width: 1; fill: none;" d="M0,0H-22m0,3v-6M0,0H22m0,3v-6M0,0V20m3,0h-6M0,0V-19m3,0h-6"></path>
     </g>
     <g transform="translate(240,214)">
      <path style="stroke: black; stroke-width: 1; fill: none;" d="M0,0H-22m0,3v-6M0,0H22m0,3v-6M0,0V18m3,0h-6M0,0V-17m3,0h-6"></path>
     </g>
     <g transform="translate(284,140)">
      <path style="stroke: black; stroke-width: 1; fill: none;" d="M0,0H-22m0,3v-6M0,0H22m0,3v-6M0,0V14m3,0h-6M0,0V-12m3,0h-6"></path>
     </g>
     <g transform="translate(327,108)">
      <path style="stroke: black; stroke-width: 1; fill: none;" d="M0,0H-22m0,3v-6M0,0H22m0,3v-6M0,0V12m3,0h-6M0,0V-10m3,0h-6"></path>
     </g>
     <g transform="translate(371,69)">
      <path style="stroke: black; stroke-width: 1; fill: none;" d="M0,0H-22m0,3v-6M0,0H22m0,3v-6M0,0V8m3,0h-6M0,0V-6m3,0h-6"></path>
     </g>
     <g transform="translate(415,57)">
      <path style="stroke: black; stroke-width: 1; fill: none;" d="M0,0H-22m0,3v-6M0,0H22m0,3v-6M0,0V5m3,0h-6M0,0V-3m3,0h-6"></path>
     </g>
     <g transform="translate(458,55)">
      <path style="stroke: black; stroke-width: 1; fill: none;" d="M0,0H-22m0,3v-6M0,0H22m0,3v-6M0,0V5m3,0h-6M0,0V-2m3,0h-6"></path>
     </g>
     <g transform="translate(502,63)">
      <path style="stroke: black; stroke-width: 1; fill: none;" d="M0,0H-22m0,3v-6M0,0H22m0,3v-6M0,0V7m3,0h-6M0,0V-4m3,0h-6"></path>
     </g>
     <g transform="translate(545,107)">
      <path style="stroke: black; stroke-width: 1; fill: none;" d="M0,0H-22m0,3v-6M0,0H22m0,3v-6M0,0V12m3,0h-6M0,0V-10m3,0h-6"></path>
     </g>
     <g transform="translate(589,139)">
      <path style="stroke: black; stroke-width: 1; fill: none;" d="M0,0H-22m0,3v-6M0,0H22m0,3v-6M0,0V15m3,0h-6M0,0V-13m3,0h-6"></path>
     </g>
     <g transform="translate(633,183)">
      <path style="stroke: black; stroke-width: 1; fill: none;" d="M0,0H-22m0,3v-6M0,0H22m0,3v-6M0,0V18m3,0h-6M0,0V-16m3,0h-6"></path>
     </g>
     <g transform="translate(676,285)">
      <path style="stroke: black; stroke-width: 1; fill: none;" d="M0,0H-22m0,3v-6M0,0H22m0,3v-6M0,0V21m3,0h-6M0,0V-20m3,0h-6"></path>
     </g>
     <g transform="translate(720,317)">
      <path style="stroke: black; stroke-width: 1; fill: none;" d="M0,0H-22m0,3v-6M0,0H22m0,3v-6M0,0V21m3,0h-6M0,0V-20m3,0h-6"></path>
     </g>
     <g transform="translate(764,397)">
      <path style="stroke: black; stroke-width: 1; fill: none;" d="M0,0H-22m0,3v-6M0,0H22m0,3v-6M0,0V23m3,0h-6M0,0V-22m3,0h-6"></path>
     </g>
     <g transform="translate(807,503)">
      <path style="stroke: black; stroke-width: 1; fill: none;" d="M0,0H-22m0,3v-6M0,0H22m0,3v-6M0,0V24m3,0h-6M0,0V-23m3,0h-6"></path>
     </g>
     <g transform="translate(851,563)">
      <path style="stroke: black; stroke-width: 1; fill: none;" d="M0,0H-22m0,3v-6M0,0H22m0,3v-6M0,0V23m3,0h-6M0,0V-23m3,0h-6"></path>
     </g>
     <path d="M22,561h1M65,454h1M109,354h1m43,-37h1m42,-67h1m43,-36h1m43,-74h1m42,-32h1M371,69h1M415,57h1m42,-2h1m43,8h1m42,44h1m43,32h1m43,44h1m42,102h1m43,32h1m43,80h1m42,106h1m43,60h1" style="stroke: black; fill: none;"></path>
    </g>
    <g>
     <path d="M0,256.77C1.45,256.77,5.82,256.77,8.73,256.77S14.55,256.77,17.45,256.77S23.27,256.77,26.18,256.77S32,256.77,34.91,256.77S40.73,256.77,43.64,256.77S49.45,256.77,52.36,256.77S58.18,256.77,61.09,256.77S66.91,256.77,69.82,256.77S75.64,256.77,78.55,256.77S84.36,256.77,87.27,256.77S93.09,256.77,96,256.77S101.82,256.77,104.73,256.77S110.55,256.77,113.45,256.77S119.27,256.77,122.18,256.77S128,256.77,130.91,256.77S136.73,256.77,139.64,256.77S145.45,256.77,148.36,256.77S154.18,256.77,157.09,256.77S162.91,256.77,165.82,256.77S171.64,256.77,174.55,256.77S180.36,256.77,183.27,256.77S189.09,256.77,192,256.77S197.82,256.77,200.73,256.77S206.55,256.77,209.45,256.77S215.27,256.77,218.18,256.77S224,256.77,226.91,256.77S232.73,256.77,235.64,256.77S241.45,256.77,244.36,256.77S250.18,256.77,253.09,256.77S258.91,256.77,261.82,256.77S267.64,256.77,270.55,256.77S276.36,256.77,279.27,256.77S285.09,256.77,288,256.77S293.82,256.77,296.73,256.77S302.55,256.77,305.45,256.77S311.27,256.77,314.18,256.77S320,256.77,322.91,256.77S328.73,256.77,331.64,256.77S337.45,256.77,340.36,256.77S346.18,256.77,349.09,256.77S354.91,256.77,357.82,256.77S363.64,256.77,366.55,256.77S372.36,256.77,375.27,256.77S381.09,256.77,384,256.77S389.82,256.77,392.73,256.77S398.55,256.77,401.45,256.77S407.27,256.77,410.18,256.77S416,256.77,418.91,256.77S424.73,256.77,427.64,256.77S433.45,256.77,436.36,256.77S442.18,256.77,445.09,256.77S450.91,256.77,453.82,256.77S459.64,256.77,462.55,256.77S468.36,256.77,471.27,256.77S477.09,256.77,480,256.77S485.82,256.77,488.73,256.77S494.55,256.77,497.45,256.77S503.27,256.77,506.18,256.77S512,256.77,514.91,256.77S520.73,256.77,523.64,256.77S529.45,256.77,532.36,256.77S538.18,256.77,541.09,256.77S546.91,256.77,549.82,256.77S555.64,256.77,558.55,256.77S564.36,256.77,567.27,256.77S573.09,256.77,576,256.77S581.82,256.77,584.73,256.77S590.55,256.77,593.45,256.77S599.27,256.77,602.18,256.77S608,256.77,610.91,256.77S616.73,256.77,619.64,256.77S625.45,256.77,628.36,256.77S634.18,256.77,637.09,256.77S642.91,256.77,645.82,256.77S651.64,256.77,654.55,256.77S660.36,256.77,663.27,256.77S669.09,256.77,672,256.77S677.82,256.77,680.73,256.77S686.55,256.77,689.45,256.77S695.27,256.77,698.18,256.77S704,256.77,706.91,256.77S712.73,256.77,715.64,256.77S721.45,256.77,724.36,256.77S730.18,256.77,733.09,256.77S738.91,256.77,741.82,256.77S747.64,256.77,750.55,256.77S756.36,256.77,759.27,256.77S765.09,256.77,768,256.77S773.82,256.77,776.73,256.77S782.55,256.77,785.45,256.77S791.27,256.77,794.18,256.77S800,256.77,802.91,256.77S808.73,256.77,811.64,256.77S817.45,256.77,820.36,256.77S826.18,256.77,829.09,256.77S834.91,256.77,837.82,256.77S843.64,256.77,846.55,256.77S852.36,256.77,855.27,256.77S861.09,256.77,864,256.77S871.27,256.77,872.73,256.77" style="fill: none; stroke: #ff0000; stroke-width: 2;"></path>
    </g>
    <g>
     <path d="M0,583.53C0.39,582.88,7.95,570.37,8.73,569.08S16.69,555.79,17.45,554.51S25.43,541.11,26.18,539.84S34.16,526.34,34.91,525.07S42.89,511.49,43.64,510.22S51.62,496.57,52.36,495.31S60.35,481.61,61.09,480.35S69.08,466.63,69.82,465.36S77.81,451.62,78.55,450.36S86.54,436.63,87.27,435.37S95.26,421.66,96,420.39S103.98,406.73,104.73,405.46S112.71,391.86,113.45,390.59S121.43,377.08,122.18,375.8S130.15,362.39,130.91,361.11S138.86,347.82,139.64,346.53S147.58,333.39,148.36,332.1S156.29,319.12,157.09,317.82S165,305.02,165.82,303.72S173.71,291.13,174.55,289.81S182.42,277.45,183.27,276.13S191.13,264.02,192,262.68S199.83,250.84,200.73,249.5S208.53,237.94,209.45,236.59S217.22,225.34,218.18,223.98S225.92,213.06,226.91,211.68S234.61,201.12,235.64,199.73S243.29,189.53,244.36,188.13S251.97,178.32,253.09,176.9S260.65,167.49,261.82,166.07S269.32,157.08,270.55,155.64S277.98,147.09,279.27,145.64S286.64,137.54,288,136.09S295.29,128.45,296.73,127S303.94,119.83,305.45,118.38S312.58,111.69,314.18,110.25S321.21,104.05,322.91,102.62S329.84,96.92,331.64,95.51S338.45,90.3,340.36,88.92S347.07,84.22,349.09,82.88S355.67,78.67,357.82,77.39S364.28,73.66,366.55,72.45S372.88,69.2,375.27,68.09S381.49,65.3,384,64.3S390.11,61.96,392.73,61.09S398.74,59.19,401.45,58.47S407.38,57,410.18,56.44S416.05,55.39,418.91,55.01S424.74,54.36,427.64,54.18S433.45,53.93,436.36,53.95S442.2,54.1,445.09,54.32S450.97,54.88,453.82,55.29S459.76,56.27,462.55,56.86S468.58,58.27,471.27,59.03S477.41,60.88,480,61.79S486.25,64.1,488.73,65.13S495.09,67.91,497.45,69.05S503.94,72.33,506.18,73.55S512.79,77.32,514.91,78.62S521.64,82.89,523.64,84.24S530.48,89.02,532.36,90.41S539.31,95.7,541.09,97.12S548.14,102.91,549.82,104.35S556.96,110.65,558.55,112.1S565.78,118.89,567.27,120.34S574.58,127.62,576,129.07S583.39,136.83,584.73,138.28S592.18,146.49,593.45,147.94S600.97,156.6,602.18,158.03S609.75,167.13,610.91,168.56S618.53,178.07,619.64,179.48S627.3,189.4,628.36,190.8S636.07,201.1,637.09,202.48S644.83,213.14,645.82,214.52S653.59,225.53,654.55,226.89S662.35,238.22,663.27,239.57S671.11,251.21,672,252.55S679.86,264.47,680.73,265.8S688.61,277.98,689.45,279.3S697.35,291.72,698.18,293.04S706.1,305.68,706.91,306.99S714.84,319.83,715.64,321.13S723.58,334.16,724.36,335.45S732.32,348.63,733.09,349.92S741.06,363.24,741.82,364.52S749.79,377.97,750.55,379.24S758.53,392.78,759.27,394.05S767.26,407.67,768,408.94S775.99,422.61,776.73,423.88S784.72,437.59,785.45,438.86S793.45,452.59,794.18,453.86S802.17,467.59,802.91,468.86S810.9,482.57,811.64,483.84S819.62,497.52,820.36,498.79S828.35,512.41,829.09,513.68S837.07,527.24,837.82,528.52S845.79,541.99,846.55,543.27S854.51,556.64,855.27,557.92S863.22,571.17,864,572.46S872.34,586.23,872.73,586.88" style="fill: none; stroke: red; stroke-width: 2;"></path>
    </g>
   </svg>
   <g>
    <g transform="translate(0,640)">
     <path d="M0,0h960M0,-24v24m44,-12v12m43,-12v12m44,-12v12m44,-24v24m43,-12v12m44,-12v12m43,-12v12m44,-24v24m44,-12v12m43,-12v12m44,-12v12m44,-24v24m43,-12v12m44,-12v12m44,-12v12m43,-24v24m44,-12v12m43,-12v12m44,-12v12m44,-24v24m43,-12v12m44,-12v12" style="stroke: black; stroke-width: 1;"></path>
     <g font-family="Arial" font-size="28" space="preserve" fill="black" text-anchor="middle">
      <text dy=".8em" transform="translate(0,6)">
       0
      </text>
      <text dy=".8em" transform="translate(175,6)">
       2
      </text>
      <text dy=".8em" transform="translate(349,6)">
       4
      </text>
      <text dy=".8em" transform="translate(524,6)">
       6
      </text>
      <text dy=".8em" transform="translate(698,6)">
       8
      </text>
      <text dy=".8em" transform="translate(873,6)">
       10
      </text>
     </g>
    </g>
    <g>
     <path d="M0,0v640M18,624h-18m18,-21h-18m18,-20h-18m36,-21h-36m18,-20h-18m18,-20h-18m18,-21h-18m18,-20h-18m36,-20h-36m18,-21h-18m18,-20h-18m18,-21h-18m18,-20h-18m36,-20h-36m18,-21h-18m18,-20h-18m18,-20h-18m18,-21h-18m36,-20h-36m18,-21h-18m18,-20h-18m18,-20h-18m18,-21h-18m36,-20h-36m18,-21h-18m18,-20h-18m18,-20h-18m18,-21h-18m36,-20h-36m18,-20h-18m18,-21h-18" style="stroke: black; stroke-width: 1;"></path>
     <g font-family="Arial" font-size="28" space="preserve" fill="black" text-anchor="end">
      <text dy=".4em" transform="translate(-4,562)">
       0.5
      </text>
      <text dy=".4em" transform="translate(-4,461)">
       0.6
      </text>
      <text dy=".4em" transform="translate(-4,359)">
       0.7
      </text>
      <text dy=".4em" transform="translate(-4,257)">
       0.8
      </text>
      <text dy=".4em" transform="translate(-4,155)">
       0.9
      </text>
      <text dy=".4em" transform="translate(-4,53)">
       1
      </text>
     </g>
    </g>
   </g>
  </g>
  <g transform="translate(120,4)" font-family="Arial" font-size="40" space="preserve">
   <text fill="black" text-anchor="middle" dy=".8em" transform="translate(480)">
    my efficiency
   </text>
  </g>
 </g>
</svg>

<svg xmlns="http://www.w3.org/2000/svg" viewBox="0 0 1200 800" preserveAspectRatio="none" width="1200" height="800">
 <path d="M0,0H1200V800H0Z" style="fill: white;"></path>
 <g>
  <g transform="translate(120,80)">
   <path d="M0,0H960V640H0Z" style="fill: white; stroke: black; stroke-width: 1;"></path>
   <svg x="0" y="0" overflow="hidden" width="960" height="640" viewBox="0 0 960 640">
    <g>
     <g transform="translate(22,561)">
      <path style="stroke: black; stroke-width: 1; fill: none;" d="M0,0H-22m0,3v-6M0,0H22m0,3v-6M0,0V23m3,0h-6M0,0V-23m3,0h-6"></path>
     </g>
     <g transform="translate(65,454)">
      <path style="stroke: black; stroke-width: 1; fill: none;" d="M0,0H-22m0,3v-6M0,0H22m0,3v-6M0,0V24m3,0h-6M0,0V-24m3,0h-6"></path>
     </g>
     <g transform="translate(109,354)">
      <path style="stroke: black; stroke-width: 1; fill: none;" d="M0,0H-22m0,3v-6M0,0H22m0,3v-6M0,0V22m3,0h-6M0,0V-21m3,0h-6"></path>
     </g>
     <g transform="translate(153,317)">
      <path style="stroke: black; stroke-width: 1; fill: none;" d="M0,0H-22m0,3v-6M0,0H22m0,3v-6M0,0V21m3,0h-6M0,0V-20m3,0h-6"></path>
     </g>
     <g transform="translate(196,250)">
      <path style="stroke: black; stroke-width: 1; fill: none;" d="M0,0H-22m0,3v-6M0,0H22m0,3v-6M0,0V20m3,0h-6M0,0V-19m3,0h-6"></path>
     </g>
     <g transform="translate(240,214)">
      <path style="stroke: black; stroke-width: 1; fill: none;" d="M0,0H-22m0,3v-6M0,0H22m0,3v-6M0,0V18m3,0h-6M0,0V-17m3,0h-6"></path>
     </g>
     <g transform="translate(284,140)">
      <path style="stroke: black; stroke-width: 1; fill: none;" d="M0,0H-22m0,3v-6M0,0H22m0,3v-6M0,0V14m3,0h-6M0,0V-12m3,0h-6"></path>
     </g>
     <g transform="translate(327,108)">
      <path style="stroke: black; stroke-width: 1; fill: none;" d="M0,0H-22m0,3v-6M0,0H22m0,3v-6M0,0V12m3,0h-6M0,0V-10m3,0h-6"></path>
     </g>
     <g transform="translate(371,69)">
      <path style="stroke: black; stroke-width: 1; fill: none;" d="M0,0H-22m0,3v-6M0,0H22m0,3v-6M0,0V8m3,0h-6M0,0V-6m3,0h-6"></path>
     </g>
     <g transform="translate(415,57)">
      <path style="stroke: black; stroke-width: 1; fill: none;" d="M0,0H-22m0,3v-6M0,0H22m0,3v-6M0,0V5m3,0h-6M0,0V-3m3,0h-6"></path>
     </g>
     <g transform="translate(458,55)">
      <path style="stroke: black; stroke-width: 1; fill: none;" d="M0,0H-22m0,3v-6M0,0H22m0,3v-6M0,0V5m3,0h-6M0,0V-2m3,0h-6"></path>
     </g>
     <g transform="translate(502,63)">
      <path style="stroke: black; stroke-width: 1; fill: none;" d="M0,0H-22m0,3v-6M0,0H22m0,3v-6M0,0V7m3,0h-6M0,0V-4m3,0h-6"></path>
     </g>
     <g transform="translate(545,107)">
      <path style="stroke: black; stroke-width: 1; fill: none;" d="M0,0H-22m0,3v-6M0,0H22m0,3v-6M0,0V12m3,0h-6M0,0V-10m3,0h-6"></path>
     </g>
     <g transform="translate(589,139)">
      <path style="stroke: black; stroke-width: 1; fill: none;" d="M0,0H-22m0,3v-6M0,0H22m0,3v-6M0,0V15m3,0h-6M0,0V-13m3,0h-6"></path>
     </g>
     <g transform="translate(633,183)">
      <path style="stroke: black; stroke-width: 1; fill: none;" d="M0,0H-22m0,3v-6M0,0H22m0,3v-6M0,0V18m3,0h-6M0,0V-16m3,0h-6"></path>
     </g>
     <g transform="translate(676,285)">
      <path style="stroke: black; stroke-width: 1; fill: none;" d="M0,0H-22m0,3v-6M0,0H22m0,3v-6M0,0V21m3,0h-6M0,0V-20m3,0h-6"></path>
     </g>
     <g transform="translate(720,317)">
      <path style="stroke: black; stroke-width: 1; fill: none;" d="M0,0H-22m0,3v-6M0,0H22m0,3v-6M0,0V21m3,0h-6M0,0V-20m3,0h-6"></path>
     </g>
     <g transform="translate(764,397)">
      <path style="stroke: black; stroke-width: 1; fill: none;" d="M0,0H-22m0,3v-6M0,0H22m0,3v-6M0,0V23m3,0h-6M0,0V-22m3,0h-6"></path>
     </g>
     <g transform="translate(807,503)">
      <path style="stroke: black; stroke-width: 1; fill: none;" d="M0,0H-22m0,3v-6M0,0H22m0,3v-6M0,0V24m3,0h-6M0,0V-23m3,0h-6"></path>
     </g>
     <g transform="translate(851,563)">
      <path style="stroke: black; stroke-width: 1; fill: none;" d="M0,0H-22m0,3v-6M0,0H22m0,3v-6M0,0V23m3,0h-6M0,0V-23m3,0h-6"></path>
     </g>
     <path d="M22,561h1M65,454h1M109,354h1m43,-37h1m42,-67h1m43,-36h1m43,-74h1m42,-32h1M371,69h1M415,57h1m42,-2h1m43,8h1m42,44h1m43,32h1m43,44h1m42,102h1m43,32h1m43,80h1m42,106h1m43,60h1" style="stroke: black; fill: none;"></path>
    </g>
    <g>
     <path d="M0,256.77C1.45,256.77,5.82,256.77,8.73,256.77S14.55,256.77,17.45,256.77S23.27,256.77,26.18,256.77S32,256.77,34.91,256.77S40.73,256.77,43.64,256.77S49.45,256.77,52.36,256.77S58.18,256.77,61.09,256.77S66.91,256.77,69.82,256.77S75.64,256.77,78.55,256.77S84.36,256.77,87.27,256.77S93.09,256.77,96,256.77S101.82,256.77,104.73,256.77S110.55,256.77,113.45,256.77S119.27,256.77,122.18,256.77S128,256.77,130.91,256.77S136.73,256.77,139.64,256.77S145.45,256.77,148.36,256.77S154.18,256.77,157.09,256.77S162.91,256.77,165.82,256.77S171.64,256.77,174.55,256.77S180.36,256.77,183.27,256.77S189.09,256.77,192,256.77S197.82,256.77,200.73,256.77S206.55,256.77,209.45,256.77S215.27,256.77,218.18,256.77S224,256.77,226.91,256.77S232.73,256.77,235.64,256.77S241.45,256.77,244.36,256.77S250.18,256.77,253.09,256.77S258.91,256.77,261.82,256.77S267.64,256.77,270.55,256.77S276.36,256.77,279.27,256.77S285.09,256.77,288,256.77S293.82,256.77,296.73,256.77S302.55,256.77,305.45,256.77S311.27,256.77,314.18,256.77S320,256.77,322.91,256.77S328.73,256.77,331.64,256.77S337.45,256.77,340.36,256.77S346.18,256.77,349.09,256.77S354.91,256.77,357.82,256.77S363.64,256.77,366.55,256.77S372.36,256.77,375.27,256.77S381.09,256.77,384,256.77S389.82,256.77,392.73,256.77S398.55,256.77,401.45,256.77S407.27,256.77,410.18,256.77S416,256.77,418.91,256.77S424.73,256.77,427.64,256.77S433.45,256.77,436.36,256.77S442.18,256.77,445.09,256.77S450.91,256.77,453.82,256.77S459.64,256.77,462.55,256.77S468.36,256.77,471.27,256.77S477.09,256.77,480,256.77S485.82,256.77,488.73,256.77S494.55,256.77,497.45,256.77S503.27,256.77,506.18,256.77S512,256.77,514.91,256.77S520.73,256.77,523.64,256.77S529.45,256.77,532.36,256.77S538.18,256.77,541.09,256.77S546.91,256.77,549.82,256.77S555.64,256.77,558.55,256.77S564.36,256.77,567.27,256.77S573.09,256.77,576,256.77S581.82,256.77,584.73,256.77S590.55,256.77,593.45,256.77S599.27,256.77,602.18,256.77S608,256.77,610.91,256.77S616.73,256.77,619.64,256.77S625.45,256.77,628.36,256.77S634.18,256.77,637.09,256.77S642.91,256.77,645.82,256.77S651.64,256.77,654.55,256.77S660.36,256.77,663.27,256.77S669.09,256.77,672,256.77S677.82,256.77,680.73,256.77S686.55,256.77,689.45,256.77S695.27,256.77,698.18,256.77S704,256.77,706.91,256.77S712.73,256.77,715.64,256.77S721.45,256.77,724.36,256.77S730.18,256.77,733.09,256.77S738.91,256.77,741.82,256.77S747.64,256.77,750.55,256.77S756.36,256.77,759.27,256.77S765.09,256.77,768,256.77S773.82,256.77,776.73,256.77S782.55,256.77,785.45,256.77S791.27,256.77,794.18,256.77S800,256.77,802.91,256.77S808.73,256.77,811.64,256.77S817.45,256.77,820.36,256.77S826.18,256.77,829.09,256.77S834.91,256.77,837.82,256.77S843.64,256.77,846.55,256.77S852.36,256.77,855.27,256.77S861.09,256.77,864,256.77S871.27,256.77,872.73,256.77" style="fill: none; stroke: #ff0000; stroke-width: 2;"></path>
    </g>
    <g>
     <path d="M0,583.53C0.39,582.88,7.95,570.37,8.73,569.08S16.69,555.79,17.45,554.51S25.43,541.11,26.18,539.84S34.16,526.34,34.91,525.07S42.89,511.49,43.64,510.22S51.62,496.57,52.36,495.31S60.35,481.61,61.09,480.35S69.08,466.63,69.82,465.36S77.81,451.62,78.55,450.36S86.54,436.63,87.27,435.37S95.26,421.66,96,420.39S103.98,406.73,104.73,405.46S112.71,391.86,113.45,390.59S121.43,377.08,122.18,375.8S130.15,362.39,130.91,361.11S138.86,347.82,139.64,346.53S147.58,333.39,148.36,332.1S156.29,319.12,157.09,317.82S165,305.02,165.82,303.72S173.71,291.13,174.55,289.81S182.42,277.45,183.27,276.13S191.13,264.02,192,262.68S199.83,250.84,200.73,249.5S208.53,237.94,209.45,236.59S217.22,225.34,218.18,223.98S225.92,213.06,226.91,211.68S234.61,201.12,235.64,199.73S243.29,189.53,244.36,188.13S251.97,178.32,253.09,176.9S260.65,167.49,261.82,166.07S269.32,157.08,270.55,155.64S277.98,147.09,279.27,145.64S286.64,137.54,288,136.09S295.29,128.45,296.73,127S303.94,119.83,305.45,118.38S312.58,111.69,314.18,110.25S321.21,104.05,322.91,102.62S329.84,96.92,331.64,95.51S338.45,90.3,340.36,88.92S347.07,84.22,349.09,82.88S355.67,78.67,357.82,77.39S364.28,73.66,366.55,72.45S372.88,69.2,375.27,68.09S381.49,65.3,384,64.3S390.11,61.96,392.73,61.09S398.74,59.19,401.45,58.47S407.38,57,410.18,56.44S416.05,55.39,418.91,55.01S424.74,54.36,427.64,54.18S433.45,53.93,436.36,53.95S442.2,54.1,445.09,54.32S450.97,54.88,453.82,55.29S459.76,56.27,462.55,56.86S468.58,58.27,471.27,59.03S477.41,60.88,480,61.79S486.25,64.1,488.73,65.13S495.09,67.91,497.45,69.05S503.94,72.33,506.18,73.55S512.79,77.32,514.91,78.62S521.64,82.89,523.64,84.24S530.48,89.02,532.36,90.41S539.31,95.7,541.09,97.12S548.14,102.91,549.82,104.35S556.96,110.65,558.55,112.1S565.78,118.89,567.27,120.34S574.58,127.62,576,129.07S583.39,136.83,584.73,138.28S592.18,146.49,593.45,147.94S600.97,156.6,602.18,158.03S609.75,167.13,610.91,168.56S618.53,178.07,619.64,179.48S627.3,189.4,628.36,190.8S636.07,201.1,637.09,202.48S644.83,213.14,645.82,214.52S653.59,225.53,654.55,226.89S662.35,238.22,663.27,239.57S671.11,251.21,672,252.55S679.86,264.47,680.73,265.8S688.61,277.98,689.45,279.3S697.35,291.72,698.18,293.04S706.1,305.68,706.91,306.99S714.84,319.83,715.64,321.13S723.58,334.16,724.36,335.45S732.32,348.63,733.09,349.92S741.06,363.24,741.82,364.52S749.79,377.97,750.55,379.24S758.53,392.78,759.27,394.05S767.26,407.67,768,408.94S775.99,422.61,776.73,423.88S784.72,437.59,785.45,438.86S793.45,452.59,794.18,453.86S802.17,467.59,802.91,468.86S810.9,482.57,811.64,483.84S819.62,497.52,820.36,498.79S828.35,512.41,829.09,513.68S837.07,527.24,837.82,528.52S845.79,541.99,846.55,543.27S854.51,556.64,855.27,557.92S863.22,571.17,864,572.46S872.34,586.23,872.73,586.88" style="fill: none; stroke: red; stroke-width: 2;"></path>
    </g>
   </svg>
   <g>
    <g transform="translate(0,640)">
     <path d="M0,0h960M0,-24V0M44,-12V0M87,-12V0M131,-12V0M175,-24V0M218,-12V0M262,-12V0M305,-12V0M349,-24V0M393,-12V0M436,-12V0M480,-12V0M524,-24V0M567,-12V0M611,-12V0M655,-12V0M698,-24V0M742,-12V0M785,-12V0M829,-12V0M873,-24V0M916,-12V0M960,-12V0" style="stroke: black; stroke-width: 1;"></path>
     <g font-family="Arial" font-size="28" space="preserve" fill="black" text-anchor="middle">
      <text dy=".8em" transform="translate(0,6)">
       0
      </text>
      <text dy=".8em" transform="translate(175,6)">
       2
      </text>
      <text dy=".8em" transform="translate(349,6)">
       4
      </text>
      <text dy=".8em" transform="translate(524,6)">
       6
      </text>
      <text dy=".8em" transform="translate(698,6)">
       8
      </text>
      <text dy=".8em" transform="translate(873,6)">
       10
      </text>
     </g>
    </g>
    <g>
     <path d="M0,0v640M18,624H0M18,603H0M18,583H0M36,562H0M18,542H0M18,522H0M18,501H0M18,481H0M36,461H0M18,440H0M18,420H0M18,399H0M18,379H0M36,359H0M18,338H0M18,318H0M18,298H0M18,277H0M36,257H0M18,236H0M18,216H0M18,196H0M18,175H0M36,155H0M18,134H0M18,114H0M18,94H0M18,73H0M36,53H0M18,33H0M18,12H0" style="stroke: black; stroke-width: 1;"></path>
     <g font-family="Arial" font-size="28" space="preserve" fill="black" text-anchor="end">
      <text dy=".4em" transform="translate(-4,562)">
       0.5
      </text>
      <text dy=".4em" transform="translate(-4,461)">
       0.6
      </text>
      <text dy=".4em" transform="translate(-4,359)">
       0.7
      </text>
      <text dy=".4em" transform="translate(-4,257)">
       0.8
      </text>
      <text dy=".4em" transform="translate(-4,155)">
       0.9
      </text>
      <text dy=".4em" transform="translate(-4,53)">
       1
      </text>
     </g>
    </g>
   </g>
  </g>
  <g transform="translate(120,4)" font-family="Arial" font-size="40" space="preserve">
   <text fill="black" text-anchor="middle" dy=".8em" transform="translate(480)">
    my efficiency
   </text>
  </g>
 </g>
</svg>
